.cache/img/_logos/logo-helix.svg

<svg xmlns="http://www.w3.org/2000/svg" width="180" height="86" viewBox="0 0 180 86"><path d="M0 84.65V0h11v36.49h15.63V0h11v84.65h-11V46.24H11v38.41zM48.22 84.65V0h25.29v14.24H59.25v22.25H69v9.75h-9.7v28.65h15.01v9.76zM83.48 84.65V0h11v74.89h17.75v9.76zM119.63 84.65V0h11v84.65zM158.49 30.73L166.81 0h11.83l-14 40.8L180 84.65h-11.92l-9.59-33.85-9.6 33.85H137l15.49-43.85L138.34 0h11.83z" fill="#fff"/></svg>

<svg xmlns="http://www.w3.org/2000/svg" width="180" height="86" viewBox="0 0 180 86"><path d="M0,84.65V0H11V36.49H26.63V0h11V84.65h-11V46.24H11V84.65Z" fill="#fff"/><path d="M48.22,84.65V0H73.51V14.24H59.25V36.49H69v9.75h-9.7V74.89H74.31v9.76Z" fill="#fff"/><path d="M83.48,84.65V0h11V74.89h17.75v9.76Z" fill="#fff"/><path d="M119.63,84.65V0h11V84.65Z" fill="#fff"/><path d="M158.49,30.73,166.81,0h11.83l-14,40.8L180,84.65H168.08L158.49,50.8l-9.6,33.85H137L152.49,40.8,138.34,0h11.83Z" fill="#fff"/></svg>
